X:20
T:Je vous avois cru belle. [FJ20]
S:Festin joyeux.  Music page 10.
Z:transcribed by Eric Conrad, 2021.
N:NB The meter is given simply as "3"
N:NB Repeat marks were added at beginning and end.
N:NB The MS repeat mark is 4 vertical dots enclosed by bars on both sides.
N:NB The plus signs seem to indicate some kind of roll or trill.
N:NB1 The MS has a dot in the fourth space (e). The intent is unclear.
M:3/4
L:1/4
% K:C clef=treble1 % MS has G on line 1
K:C
|: e>de | f(d>e) | "^+"e>(dc) | e>de | f(d>e) | "^+"e3 :|
|: e>de | fd2 | B2c | (d>c)d | e>(dc) |
e>de | f"^+"(d>c) | "^+"B2c | "_NB1"e/d/"^+"d2 | c3 :|

